X:1
T:Title
%%score ( 1 2 3 ) { ( 4 7 ) | ( 5 6 ) }
L:1/8
Q:1/4=112
M:4/4
K:F
V:1 treble nm="Church Organ, Unnamed-000"
V:2 treble 
V:3 treble 
V:4 bass nm="Church Organ, Rustington"
V:7 bass 
V:5 bass 
V:6 bass 
V:1
 z4 B2 A2 | G4 z4 | [CF]2 F2 [Fd]2 [Fc]2 | B3 c [FA]4 | z4 z2 A2 | G4 z4 | [CG]2 [CF]2 [CE]2 C2 | %7
 D4 z4 | C2 [C_E]2 D3 D | [B,D]2 [DF]2 [DF]2 [CE]2 | [CE]2 [EG]2 F3 F | [DF]2 [FB]2 G2- [EG]2 | %12
 [EG]2 [Ed]2 [Fc]2 [F_e]2 | z2 c2 z4 | [DG]2 [GB]2 A-[EA] [DG]2 | [B,D]2 [B,E]2 [A,F]4- | %16
 [A,F]4 z4 |] %17
V:2
 F3 F F3 E | D2 z F [CE]2 C2 | x8 | F2 E2 z4 | [CG]2 [Ec]2 =B2 z E | D2 z F [CE]2 C2 | x8 | %7
 C2 z D C4 | z4 C2 B,2 | x8 | z4 D2 D2 | z4 F2 z2 | x8 | d2 z _E [DB]2 [DA]2 | z4 .F2 z2 | x8 | %16
 x8 |] %17
V:3
 x8 | z2 D2 z4 | x8 | x8 | z4 F4 | z2 D2 z4 | x8 | z2 =B,2 z4 | x8 | x8 | x8 | x8 | x8 | F4 z4 | %14
 x8 | x8 | x8 |] %17
V:4
 .A,4 B,2 C2 | D2 B,2 G,2 z B,, | F,2[K:treble] C2 B,2 C2 | D2 B,2 C4 | C2 C2 D2 C2 | %5
 C2[K:bass] =B,2 C2 E,2 | G,2 A,2 G,2 E,2 | A,2 G,F, E,4 | F,2 F,2 F,3 F, | G,2 G,2 G,2 G,2 | %10
 A,2 A,2 A,3 A, | B,2[K:treble] D2 D2 C2 | C2 C2 C2 C2 | B,2 A,2 B,2 F,2 | G,2 D2 C2 B,A, | %15
 G,2 G,2 F,4- | F,4 z4 |] %17
V:5
 F,2 z A, D,2 C,2 | B,,2 G,,2 .C,4 | A,,2 A,,2 B,,2 A,,2 | G,,2 G,2 F,4 | E,2 A,,2 D,2 F,2 | %5
 G,2 G,,2 C,2 C,2 | E,,2 F,,2 G,,2 A,,2 | F,,2 G,,2 C,4 | A,,2 A,,2 B,,3 A,, | G,,2 G,,2 C,2 C,2 | %10
 A,,2 A,,2 D,3 D, | B,,2 G,,2 C,4 | z2 B,2 A,2 A,2 | z2 F,2 G,2 D,2 | B,,2 G,,2 A,,2 B,,2 | %15
 B,,2 C,2 F,,4- | F,,4 z4 |] %17
V:6
 z2 E,2 z4 | x8 | x8 | x8 | x8 | x8 | x8 | x8 | x8 | x8 | x8 | x8 | x8 | x8 | x8 | x8 | x8 |] %17
V:7
 x8 | z4 z2 E,2 | x2[K:treble] x6 | x8 | x8 | x2[K:bass] x6 | x8 | x8 | x8 | x8 | x8 | %11
 x2[K:treble] x6 | x8 | x8 | x8 | x8 | x8 |] %17

